public/images/hashed/98f452a111feaba04ca079443492e051.svg

<?xml version="1.0" encoding="UTF-8"?>
<svg width="80px" height="80px" viewBox="0 0 80 80" version="1.1" xmlns="http://www.w3.org/2000/svg" xmlns:xlink="http://www.w3.org/1999/xlink">
    <!-- Generator: Sketch 64 (93537) - https://sketch.com -->
    <title>Icon-Architecture/64/Arch_AWS-Config_64</title>
    <desc>Created with Sketch.</desc>
    <defs>
        <linearGradient x1="0%" y1="100%" x2="100%" y2="0%" id="linearGradient-1">
            <stop stop-color="#B0084D" offset="0%"></stop>
            <stop stop-color="#FF4F8B" offset="100%"></stop>
        </linearGradient>
    </defs>
    <g id="Icon-Architecture/64/Arch_AWS-Config_64" stroke="none" stroke-width="1" fill="none" fill-rule="evenodd">
        <g id="Icon-Architecture-BG/64/Management-Governance" fill="url(#linearGradient-1)">
            <rect id="Rectangle" x="0" y="0" width="80" height="80"></rect>
        </g>
        <path d="M58.5407427,47.0508731 L60.4215722,47.7013556 L59.2349886,51.1298165 C59.0957415,51.5336329 58.7148014,51.7982023 58.2960657,51.7982023 C58.2552862,51.7982023 58.2135121,51.7962131 58.171738,51.79124 L54.3404553,51.3138216 L54.5871215,49.3394975 L56.7524129,49.6100346 C55.9010167,48.26829 54.2947027,47.4308185 52.3750829,47.4308185 C49.8606793,47.4308185 47.9549842,48.8063803 47.5203345,50.9348707 L45.5718706,50.537022 C46.20445,47.4417594 48.8750092,45.4415752 52.3750829,45.4415752 C54.8288146,45.4415752 56.9065792,46.4809548 58.1568187,48.1618655 L58.5407427,47.0508731 Z M57.2298313,53.7894349 L59.1782951,54.1892728 C58.5486996,57.2626538 55.8144846,59.3274884 52.3750829,59.3274884 C50.1361895,59.3274884 48.1628601,58.3627054 46.8877551,56.815074 L46.6898254,57.7490238 L44.7433508,57.3362558 L45.5320858,53.6143815 C45.644478,53.0832535 46.1557135,52.7391144 46.6967877,52.8445443 L50.3142268,53.5527149 L49.9322921,55.5051573 L48.1091505,55.1480881 C48.9824284,56.4868489 50.5608929,57.338245 52.3750829,57.338245 C54.8815295,57.338245 56.7872246,55.9447801 57.2298313,53.7894349 L57.2298313,53.7894349 Z M65.0107566,54.0997569 L63.8142268,54.0321226 C63.3318353,54.0092463 62.8951963,54.3315037 62.7877772,54.8069329 C62.5242025,55.9776026 62.0646872,57.0876004 61.421167,58.106093 C61.1615708,58.5168717 61.237162,59.0559567 61.5992043,59.3792087 L62.4933692,60.1759007 L60.1768953,62.4933692 L59.3831872,61.6041774 C59.0589405,61.2401459 58.5198556,61.1655493 58.1090768,61.4251455 C57.0905842,62.0686657 55.9795918,62.5291756 54.8049436,62.7947396 C54.3315037,62.9021587 54.0032786,63.3358137 54.0321226,63.8211891 L54.0997569,65.0107566 L50.8214838,65.0107566 L50.8901127,63.8201945 C50.9179621,63.3348191 50.5907316,62.9001695 50.1162971,62.7927503 C48.9456273,62.5291756 47.8336403,62.0676711 46.8141531,61.4231563 C46.4033743,61.16356 45.8642894,61.237162 45.5410374,61.6021882 L44.74534,62.4933692 L42.4278715,60.1759007 L43.3190525,59.381198 C43.6820894,59.0579459 43.7576807,58.5198556 43.4980844,58.1090768 C42.8555588,57.0895896 42.3970382,55.9795918 42.1324689,54.8059383 C42.0260444,54.3305091 41.5744861,53.9993001 41.1060193,54.0321226 L39.9114787,54.0997569 L39.9114787,50.8224784 L41.1099978,50.8901127 C41.5506152,50.9100052 42.0280336,50.5917262 42.1364474,50.1172917 C42.4010167,48.9476166 42.8615266,47.8386134 43.5050468,46.8211154 C43.764643,46.4093421 43.6880572,45.8712517 43.3260149,45.5479997 L42.4278715,44.7463346 L44.74534,42.4278715 L45.5470051,43.3250203 C45.8692625,43.6890518 46.4103367,43.7626538 46.8191262,43.5050468 C47.8356296,42.8635158 48.9456273,42.4049952 50.1162971,42.1404258 C50.5907316,42.0330067 50.9179621,41.598357 50.8901127,41.1129817 L50.8214838,39.9114787 L54.0997569,39.9114787 L54.0321226,41.1149709 C54.0032786,41.6003463 54.3315037,42.0340013 54.8049436,42.1414205 C55.9746187,42.4059898 57.0826273,42.865505 58.0991306,43.507036 C58.5079201,43.764643 59.0479997,43.691041 59.3722464,43.3280041 L60.1759007,42.4278715 L62.4933692,44.7463346 L61.5972151,45.5450158 C61.2351728,45.8692625 61.1595815,46.4073528 61.4191778,46.8181316 C62.0617034,47.8366242 62.5222132,48.9456273 62.7867826,50.1172917 C62.8942017,50.5917262 63.3547116,50.9100052 63.8132322,50.8901127 L65.0107566,50.8224784 L65.0107566,54.0997569 Z M66.6876888,49.0460841 C66.4897591,48.8581006 66.2142489,48.7586385 65.9486849,48.775547 L64.5124512,48.8581006 C64.2667796,48.0365431 63.9385545,47.242835 63.529765,46.4879172 L64.6039564,45.5291019 C64.8078538,45.3470861 64.9282031,45.0884845 64.93616,44.8149635 C64.9431224,44.5424372 64.8376925,44.2768732 64.6447359,44.0839166 L60.8383187,40.2765048 C60.6443675,40.0835482 60.3917336,39.971156 60.1062772,39.9860753 C59.8327562,39.9940323 59.5751492,40.1133869 59.3921388,40.3172843 L58.4303396,41.3964488 C57.6764164,40.9886539 56.8846976,40.6604288 56.0641347,40.4157519 L56.1456937,38.9725558 C56.160613,38.7000295 56.0641347,38.4324762 55.8751566,38.2335519 C55.6881677,38.0346276 55.4265822,37.9222353 55.1530612,37.9222353 L49.7691741,37.9222353 C49.4946585,37.9222353 49.2340676,38.0346276 49.0460841,38.2335519 C48.8581006,38.4324762 48.7606277,38.7000295 48.7765417,38.9725558 L48.8581006,40.4137626 C48.0355485,40.6584395 47.2448243,40.9866647 46.4899064,41.3944596 L45.5291019,40.3182789 C45.3470861,40.1133869 45.0894791,39.9940323 44.8149635,39.9860753 C44.5374641,39.9741398 44.2778678,40.0835482 44.0839166,40.2765048 L40.2765048,44.0839166 C40.0825536,44.2768732 39.9771237,44.5424372 39.9850807,44.8149635 C39.9930376,45.0884845 40.1133869,45.3470861 40.3172843,45.5291019 L41.3944596,46.4909011 C40.9856701,47.2448243 40.6574449,48.0375378 40.4107788,48.8581006 L38.9725558,48.775547 C38.7010241,48.7576439 38.4314816,48.8581006 38.2335519,49.0460841 C38.0346276,49.2340676 37.9222353,49.4956531 37.9222353,49.7691741 L37.9222353,55.1530612 C37.9222353,55.4255876 38.0346276,55.6881677 38.2335519,55.8761512 C38.4314816,56.0641347 38.7020187,56.1596184 38.9725558,56.1456937 L40.4058056,56.0641347 C40.6514772,56.8876814 40.9797024,57.6813895 41.3884919,58.4382966 L40.3172843,59.3921388 C40.1133869,59.5751492 39.9930376,59.8327562 39.9850807,60.1062772 C39.9771237,60.3797981 40.0825536,60.6443675 40.2765048,60.8383187 L44.0839166,64.6447359 C44.2778678,64.8386871 44.561335,64.9451116 44.8149635,64.93616 C45.0894791,64.9282031 45.3470861,64.8078538 45.5291019,64.6039564 L46.4839387,63.5337435 C47.2408458,63.9435276 48.0345539,64.2727474 48.8581006,64.5184189 L48.7765417,65.9486849 C48.7606277,66.2222058 48.8581006,66.4897591 49.0460841,66.6886834 C49.2340676,66.8876078 49.4946585,67 49.7691741,67 L55.1530612,67 C55.4265822,67 55.6881677,66.8876078 55.8751566,66.6886834 C56.0641347,66.4897591 56.160613,66.2222058 56.1456937,65.9486849 L56.0641347,64.5204082 C56.888676,64.2747366 57.6833788,63.9455168 58.4392912,63.5357327 L59.3921388,64.6039564 C59.5741546,64.8088484 59.8327562,64.9282031 60.1062772,64.93616 C60.3947175,64.9480955 60.6443675,64.8386871 60.8383187,64.6447359 L64.6447359,60.8383187 C64.8376925,60.6443675 64.9431224,60.3797981 64.93616,60.1062772 C64.9282031,59.8327562 64.8078538,59.5751492 64.6039564,59.3931334 L63.5317542,58.4363074 C63.9405437,57.6803949 64.2697635,56.8866868 64.5144404,56.0641347 L65.9486849,56.1456937 C66.2132543,56.1586237 66.4897591,56.0631401 66.6876888,55.8761512 C66.8876078,55.6881677 67,55.4255876 67,55.1530612 L67,49.7691741 C67,49.4956531 66.8876078,49.2340676 66.6876888,49.0460841 L66.6876888,49.0460841 Z M14.9892434,54.7741104 L34.8816769,54.7741104 L34.8816769,56.7633537 L13.9946217,56.7633537 C13.4445959,56.7633537 13,56.3177632 13,55.768732 L13,13.9946217 C13,13.4455905 13.4445959,13 13.9946217,13 L59.7472187,13 C60.2972445,13 60.7418404,13.4455905 60.7418404,13.9946217 L60.7418404,35.8762985 L58.7525971,35.8762985 L58.7525971,14.9892434 L14.9892434,14.9892434 L14.9892434,54.7741104 Z M47.8117586,26.9247035 L46.817137,26.9247035 L46.817137,24.9354601 L47.8117586,24.9354601 L51.7902453,24.9354601 L52.784867,24.9354601 L52.784867,26.9247035 L51.7902453,26.9247035 L47.8117586,26.9247035 Z M48.8063803,22.9462168 L50.7956237,22.9462168 L50.7956237,18.9677301 L48.8063803,18.9677301 L48.8063803,22.9462168 Z M52.784867,35.8762985 L52.784867,28.9139468 L53.7794887,28.9139468 C54.3295145,28.9139468 54.7741104,28.4683563 54.7741104,27.9193251 L54.7741104,23.9408384 C54.7741104,23.3918073 54.3295145,22.9462168 53.7794887,22.9462168 L52.784867,22.9462168 L52.784867,17.9731084 C52.784867,17.4240772 52.3402711,16.9784867 51.7902453,16.9784867 L47.8117586,16.9784867 C47.2617329,16.9784867 46.817137,17.4240772 46.817137,17.9731084 L46.817137,22.9462168 L45.8225153,22.9462168 C45.2724895,22.9462168 44.8278936,23.3918073 44.8278936,23.9408384 L44.8278936,27.9193251 C44.8278936,28.4683563 45.2724895,28.9139468 45.8225153,28.9139468 L46.817137,28.9139468 L46.817137,35.8762985 L48.8063803,35.8762985 L48.8063803,28.9139468 L50.7956237,28.9139468 L50.7956237,35.8762985 L52.784867,35.8762985 Z M33.8870552,37.8655419 L32.8924335,37.8655419 L32.8924335,35.8762985 L33.8870552,35.8762985 L37.8655419,35.8762985 L38.8601636,35.8762985 L38.8601636,37.8655419 L37.8655419,37.8655419 L33.8870552,37.8655419 Z M34.8816769,33.8870552 L36.8709202,33.8870552 L36.8709202,18.9677301 L34.8816769,18.9677301 L34.8816769,33.8870552 Z M38.8601636,41.8440286 L38.8601636,39.8547852 L39.8547852,39.8547852 C40.404811,39.8547852 40.8494069,39.4091947 40.8494069,38.8601636 L40.8494069,34.8816769 C40.8494069,34.3326457 40.404811,33.8870552 39.8547852,33.8870552 L38.8601636,33.8870552 L38.8601636,17.9731084 C38.8601636,17.4240772 38.4155677,16.9784867 37.8655419,16.9784867 L33.8870552,16.9784867 C33.3370294,16.9784867 32.8924335,17.4240772 32.8924335,17.9731084 L32.8924335,33.8870552 L31.8978118,33.8870552 C31.347786,33.8870552 30.9031902,34.3326457 30.9031902,34.8816769 L30.9031902,38.8601636 C30.9031902,39.4091947 31.347786,39.8547852 31.8978118,39.8547852 L32.8924335,39.8547852 L32.8924335,50.7956237 L34.8816769,50.7956237 L34.8816769,39.8547852 L36.8709202,39.8547852 L36.8709202,41.8440286 L38.8601636,41.8440286 Z M18.9677301,27.9193251 L19.9623517,27.9193251 L23.9408384,27.9193251 L24.9354601,27.9193251 L24.9354601,29.9085685 L23.9408384,29.9085685 L19.9623517,29.9085685 L18.9677301,29.9085685 L18.9677301,27.9193251 Z M20.9569734,25.9300818 L22.9462168,25.9300818 L22.9462168,18.9677301 L20.9569734,18.9677301 L20.9569734,25.9300818 Z M20.9569734,48.8063803 L22.9462168,48.8063803 L22.9462168,31.8978118 L20.9569734,31.8978118 L20.9569734,48.8063803 Z M19.9623517,50.7956237 L23.9408384,50.7956237 C24.4908642,50.7956237 24.9354601,50.3500332 24.9354601,49.801002 L24.9354601,31.8978118 L25.9300818,31.8978118 C26.4801076,31.8978118 26.9247035,31.4522213 26.9247035,30.9031902 L26.9247035,26.9247035 C26.9247035,26.3756723 26.4801076,25.9300818 25.9300818,25.9300818 L24.9354601,25.9300818 L24.9354601,17.9731084 C24.9354601,17.4240772 24.4908642,16.9784867 23.9408384,16.9784867 L19.9623517,16.9784867 C19.4123259,16.9784867 18.9677301,17.4240772 18.9677301,17.9731084 L18.9677301,25.9300818 L17.9731084,25.9300818 C17.4230826,25.9300818 16.9784867,26.3756723 16.9784867,26.9247035 L16.9784867,30.9031902 C16.9784867,31.4522213 17.4230826,31.8978118 17.9731084,31.8978118 L18.9677301,31.8978118 L18.9677301,49.801002 C18.9677301,50.3500332 19.4123259,50.7956237 19.9623517,50.7956237 L19.9623517,50.7956237 Z" id="AWS-Config_Icon_64_Squid" fill="#FFFFFF"></path>
    </g>
</svg>

<svg xmlns="http://www.w3.org/2000/svg" width="80" height="80"><defs><linearGradient id="a" x1="0%" x2="100%" y1="100%" y2="0%"><stop offset="0%" stop-color="#B0084D"/><stop offset="100%" stop-color="#FF4F8B"/></linearGradient></defs><g fill="none" fill-rule="evenodd"><path fill="url(#a)" d="M0 0h80v80H0z"/><path fill="#FFF" d="m58.54 47.05 1.882.651-1.187 3.429a.994.994 0 0 1-1.063.661l-3.832-.477.247-1.975 2.165.271c-.851-1.342-2.457-2.18-4.377-2.18-2.514 0-4.42 1.376-4.855 3.505l-1.948-.398c.632-3.095 3.303-5.095 6.803-5.095 2.454 0 4.532 1.039 5.782 2.72l.384-1.111Zm-1.31 6.74 1.948.4c-.63 3.073-3.364 5.137-6.803 5.137-2.239 0-4.212-.964-5.487-2.512l-.198.934-1.947-.413.79-3.722a.99.99 0 0 1 1.164-.77l3.617.709-.382 1.952-1.823-.357c.873 1.339 2.452 2.19 4.266 2.19 2.507 0 4.412-1.393 4.855-3.549Zm7.78.31-1.196-.068c-.482-.023-.919.3-1.026.775a10.463 10.463 0 0 1-1.367 3.3c-.26.41-.184.949.178 1.272l.894.797-2.316 2.317-.794-.889a.994.994 0 0 0-1.274-.179 10.504 10.504 0 0 1-3.304 1.37.993.993 0 0 0-.773 1.026l.068 1.19H50.82l.07-1.19a.995.995 0 0 0-.775-1.028 10.472 10.472 0 0 1-3.302-1.37.992.992 0 0 0-1.273.18l-.796.89-2.317-2.317.891-.795a.993.993 0 0 0 .18-1.272 10.51 10.51 0 0 1-1.367-3.303 1 1 0 0 0-1.026-.774l-1.195.068v-3.278l1.199.068c.44.02.918-.298 1.026-.773.265-1.17.726-2.278 1.369-3.296a.995.995 0 0 0-.179-1.273l-.898-.802 2.317-2.318.802.897a.994.994 0 0 0 1.272.18 10.498 10.498 0 0 1 3.297-1.365.995.995 0 0 0 .774-1.027l-.069-1.202H54.1l-.068 1.204c-.029.485.3.919.773 1.026 1.17.265 2.278.725 3.294 1.366a.997.997 0 0 0 1.273-.179l.804-.9 2.317 2.318-.896.799a.995.995 0 0 0-.178 1.273 10.502 10.502 0 0 1 1.368 3.3c.107.474.568.792 1.026.772l1.198-.068V54.1Zm1.678-5.054a.998.998 0 0 0-.74-.27l-1.436.082a12.487 12.487 0 0 0-.982-2.37l1.074-.959a.997.997 0 0 0 .04-1.445l-3.806-3.807a.953.953 0 0 0-.732-.29.998.998 0 0 0-.714.33l-.962 1.08a12.444 12.444 0 0 0-2.366-.981l.082-1.443a.993.993 0 0 0-.993-1.05H49.77a.993.993 0 0 0-.992 1.05l.081 1.44c-.822.245-1.613.574-2.368.981l-.96-1.076a.991.991 0 0 0-.715-.332.974.974 0 0 0-.731.29l-3.807 3.808a.992.992 0 0 0 .04 1.445l1.077.962a12.53 12.53 0 0 0-.983 2.367l-1.438-.082a.995.995 0 0 0-1.05.994v5.383a.996.996 0 0 0 1.05.993l1.433-.082c.245.824.574 1.617.982 2.374l-1.07.954a.999.999 0 0 0-.041 1.446l3.807 3.807a.995.995 0 0 0 1.445-.04l.955-1.071c.757.41 1.55.739 2.374.984l-.081 1.43A.993.993 0 0 0 49.769 67h5.384a.994.994 0 0 0 .993-1.051l-.082-1.429c.825-.245 1.62-.574 2.375-.984l.953 1.068c.182.205.44.324.714.332a.957.957 0 0 0 .732-.291l3.807-3.807a.995.995 0 0 0-.04-1.445l-1.073-.957c.409-.756.738-1.55.982-2.372l1.435.082A.993.993 0 0 0 67 55.153V49.77a.992.992 0 0 0-.312-.723Zm-51.699 5.728h19.893v1.99H13.995a.994.994 0 0 1-.995-.995V13.995c0-.55.445-.995.995-.995h45.752c.55 0 .995.446.995.995v21.881h-1.99V14.99H14.99v39.785Zm32.823-27.85h-.995v-1.989h5.968v1.99h-4.973Zm.994-3.978h1.99v-3.978h-1.99v3.978Zm3.979 12.93v-6.962h.994c.55 0 .995-.446.995-.995v-3.978a.994.994 0 0 0-.995-.995h-.994v-4.973a.994.994 0 0 0-.995-.995h-3.978a.994.994 0 0 0-.995.995v4.973h-.994a.994.994 0 0 0-.995.995v3.978c0 .55.444.995.995.995h.994v6.962h1.99v-6.962h1.989v6.962h1.989Zm-18.898 1.99h-.995v-1.99h5.968v1.99h-4.973Zm.995-3.979h1.989v-14.92h-1.99v14.92Zm3.978 7.957v-1.99h.995c.55 0 .994-.445.994-.994v-3.978a.994.994 0 0 0-.994-.995h-.995V17.973a.994.994 0 0 0-.994-.995h-3.979a.994.994 0 0 0-.995.995v15.914h-.994a.994.994 0 0 0-.995.995v3.978c0 .55.445.995.995.995h.994v10.94h1.99v-10.94h1.989v1.989h1.99ZM18.968 27.919h5.967v1.99h-5.967v-1.99Zm1.989-1.989h1.99v-6.962h-1.99v6.962Zm0 22.876h1.99V31.898h-1.99v16.908Zm-.995 1.99h3.979c.55 0 .994-.446.994-.995V31.898h.995c.55 0 .995-.446.995-.995v-3.978a.994.994 0 0 0-.995-.995h-.995v-7.957a.994.994 0 0 0-.994-.995h-3.979a.994.994 0 0 0-.994.995v7.957h-.995a.994.994 0 0 0-.995.995v3.978c0 .55.445.995.995.995h.995V49.8c0 .549.444.995.994.995Z"/></g></svg>
